X:7
T:The Alderman's Hat
C:Thompson, 1774-1779
S:Colin Hume's website,  colinhume.com  - chords can also be printed below the stave.
Q:1/2=120
M:4/4
L:1/4
K:Gm
P:A
|:D | "Gm"GB- BG | "D7"^Fd- dD | "Gm"GB- BG | "D7"^FA- AD |\
"Gm"GB- BG | "D"^Fg -"Cm"gc | "Gm/D"B2 "D7"A2 | "Gm"G3 :|
P:B
|:d | "Gm"dg- gd | "Gm"gb- bd | "F"cf- fc | "F"fa- ac |\
"Eb"Be- ed/c/ | "Gm"dg -"Cm"gc | "Gm/D"B2 "D7"A2 | "Gm"G3 :|

